X: 17798
T: Hook In The Flesh, The
R: jig
M: 6/8
K: Eminor
|:B,EE EDE|F2B A2B|AFB AFE|FED EDA,|
B,EE EDE|FBB A2B|AFB A2E|FED E2D:|
B,EF BdA|Bdf e2A|Bdd add|fed BdA|
DEF BdA|Bdf e2A|dBe dBA|FBB dBA|
DEF BdA|Bdf e2A|Bdd add|fed BdA|
DEF BdA|Bdf e2f|afe dBA|FED EDA,|

